X:252
T:Sweet Molly. RH.252
R:reel
S:Rev.R.Harrison’s MS,c1815,Cumbria
O:England
A:Temple Sowerby,Cumbria
Z:vmp.Simon Wilson. Review PJH, 2008.
M:2/4
L:1/8
Q:1/4=150
K:G
Eeef|e2dB|defd|eBdA|\
Beef|e2dB|ABdF|E/E/EE2:|!
|:F/F/F F>E|DEFA|B/B/B B>A|Bdef|\
dBAF|D>FEA|BdAF|E/E/EE2:|

